X: 20552
T: John Murphy's
R: slide
M: 12/8
K: Dmajor
|:F2 G|A2 d F2 G A3 Bcd|e2 d cBA B2 A F2 G|
A2 d F2 G A3 Bcd|e2 d cBA d3:|
f2 ^e|f2 A A^GA Bcd e3|e2 d cBA FGA f2 ^e|
f2 A A^GA Bcd e3|e2 d cBA d3 f2 ^e|
f2 A ABA Bcd e3|e2 d cBA cBA FF/G/A|
Add EFG ABA Bcd|ef/e/d cBA d3||

